src/resources/icons-ec/src/all/book.svg

<?xml version="1.0" encoding="UTF-8"?>
<svg width="48px" height="48px" viewBox="0 0 48 48" version="1.1" xmlns="http://www.w3.org/2000/svg" xmlns:xlink="http://www.w3.org/1999/xlink">
    <title>EC/Icons/General/2XL_48x48px/Icon-Book</title>
    <defs>
        <path d="M41.8869333,2 L9.95733333,2 C7.696,2 6,3.5909091 6,6 L6,42 C6,44.5358852 7.85173334,46 10,46 L38,46 L38,8 L12,8 C10,8 8,8 8,6 C8,4 10,4 12,4 L40,4 L40,38 L42,38 L41.8869333,2 Z" id="path-1"></path>
    </defs>
    <g id="EC/Icons/General/2XL_48x48px/Icon-Book" stroke="none" stroke-width="1">
        <mask id="mask-2" >
            <use xlink:href="#path-1"></use>
        </mask>
        <use id="Book" xlink:href="#path-1"></use>
    </g>
</svg>

<?xml version="1.0" encoding="UTF-8" ?>
<svg xmlns="http://www.w3.org/2000/svg" viewBox="0 0 48 48"><defs><style
    >.cls-1{fill:none;}.cls-2{fill-rule:evenodd;}</style></defs><g
    id="transparant_bg"
  ><rect class="cls-1" width="48" height="48" /></g><g id="Layer_1"><path
      class="cls-2"
      d="M41.89,2H9.96c-2.26,0-3.96,1.59-3.96,4V42c0,2.54,1.85,4,4,4h28V8H12c-2,0-4,0-4-2s2-2,4-2h28V38h2l-.11-36Z"
    /></g></svg>
